svg/fluentui-system-icons/ic_fluent_receipt_bag_24_filled.svg

<svg width="24" height="24" viewBox="0 0 24 24" fill="none" xmlns="http://www.w3.org/2000/svg">
<path d="M4 5.25C4 4.00736 5.00736 3 6.25 3H15.75C16.9926 3 18 4.00736 18 5.25V14H22V17.75C22 19.5449 20.5449 21 18.75 21H11.4905C11.4968 20.9175 11.5 20.8341 11.5 20.75V14.75C11.5 14.052 11.0913 13.4494 10.5001 13.1685V13C10.5001 12.8302 10.488 12.6633 10.4647 12.5H13.75C14.1642 12.5 14.5 12.1642 14.5 11.75C14.5 11.3358 14.1642 11 13.75 11H9.87276C9.24029 10.0933 8.18948 9.5 7.00011 9.5C6.56073 9.5 6.13892 9.5814 5.75 9.73015C5.36112 9.58143 4.93936 9.50005 4.50003 9.50004C4.33026 9.50004 4.16331 9.51213 4 9.53549V5.25ZM18 19.5H18.75C19.7165 19.5 20.5 18.7165 20.5 17.75V15.5H18V19.5ZM7.5 7.75C7.5 8.16421 7.83579 8.5 8.25 8.5H13.75C14.1642 8.5 14.5 8.16421 14.5 7.75C14.5 7.33579 14.1642 7 13.75 7H8.25C7.83579 7 7.5 7.33579 7.5 7.75ZM1 14.75C1 14.3358 1.33579 14 1.75 14H2V13C2 11.6193 3.1193 10.5 4.50002 10.5C4.95538 10.5 5.3823 10.6218 5.75002 10.8345C6.11776 10.6218 6.54471 10.5 7.00011 10.5C8.38082 10.5 9.50011 11.6193 9.50011 13V14H9.75C10.1642 14 10.5 14.3358 10.5 14.75V20.75C10.5 21.9927 9.49264 23 8.25 23H3.25C2.00736 23 1 21.9927 1 20.75V14.75ZM7 13V14H8.00011V13C8.00011 12.4477 7.55239 12 7.00011 12C6.93177 12 6.86504 12.0069 6.80056 12.0199C6.92895 12.3209 7 12.6522 7 13ZM5.5 14V13C5.5 12.4478 5.05229 12 4.50001 12C3.94772 12 3.5 12.4478 3.5 13V14H5.5Z" fill="#212121"/>
</svg>

<svg xmlns="http://www.w3.org/2000/svg" width="24" height="24"><path d="M4 5.25A2.25 2.25 0 0 1 6.25 3h9.5A2.25 2.25 0 0 1 18 5.25V14h4v3.75A3.25 3.25 0 0 1 18.75 21h-7.26a2.95 2.95 0 0 0 .01-.25v-6c0-.698-.409-1.3-1-1.582V13c0-.17-.012-.337-.035-.5h3.285a.75.75 0 0 0 0-1.5H9.873A3.496 3.496 0 0 0 5.75 9.73 3.494 3.494 0 0 0 4 9.535V5.25ZM18 19.5h.75a1.75 1.75 0 0 0 1.75-1.75V15.5H18v4ZM7.5 7.75c0 .414.336.75.75.75h5.5a.75.75 0 0 0 0-1.5h-5.5a.75.75 0 0 0-.75.75Zm-6.5 7a.75.75 0 0 1 .75-.75H2v-1a2.5 2.5 0 0 1 3.75-2.165A2.5 2.5 0 0 1 9.5 13v1h.25a.75.75 0 0 1 .75.75v6A2.25 2.25 0 0 1 8.25 23h-5A2.25 2.25 0 0 1 1 20.75v-6ZM7 13v1h1v-1a1 1 0 0 0-1.2-.98c.129.3.2.632.2.98Zm-1.5 1v-1a1 1 0 0 0-2 0v1h2Z"/></svg>
